X: 41136
T: Trip To Windsor, The
R: reel
M: 4/4
K: Amajor
|:A/A/A (AB) Ace=g|f/f/f (fg) fef^g|agfe fgaf|1 ecBc AFEF:|2 ecBd cA A2||
|:efec efae|((3fga) (ec) BAcB|AFEC EFAE|((3FGA) (EC) B,A,CB,|
A,2 (CE) FECE|AEcB Aceg|agfe fgaf|1 ecBd (cA) Ac:|2 ecBc ~A4||

